public/assets/img/about-us/auto_stories.svg

<svg width="124" height="100" viewBox="0 0 124 100" fill="none" xmlns="http://www.w3.org/2000/svg">
<path d="M58.1156 98.6206L58.1156 98.6205L58.1085 98.6164C53.3173 95.8481 48.3369 93.797 43.1682 92.4649C38.0027 91.1336 32.6527 90.4684 27.1193 90.4684C24.1408 90.4684 21.2144 90.6546 18.3404 91.0272C15.4542 91.4013 12.6217 92.0694 9.84333 93.0311L9.83604 93.0337C7.67095 93.821 5.68074 93.5309 3.80712 92.1504C1.93054 90.7676 1 88.9114 1 86.5319V30.1242C1 28.5346 1.44487 27.1325 2.3318 25.9006C3.22552 24.6593 4.35876 23.7992 5.73852 23.3065L5.74861 23.3029L5.75854 23.2988C9.10742 21.9383 12.5876 20.9177 16.1997 20.2372C19.8136 19.5563 23.4534 19.2159 27.1193 19.2159C33.2969 19.2159 39.2627 20.2104 45.0192 22.199C50.7085 24.1645 56.1947 26.6902 61.478 29.7769V96.0388V96.9524L62.2475 96.4599C67.4842 93.1085 73.0588 90.701 78.973 89.2355C84.9028 87.7662 90.857 87.0319 96.8367 87.0319C100.202 87.0319 103.165 87.1897 105.728 87.5035C108.287 87.8169 111.088 88.3923 114.133 89.2322L114.134 89.2325C115.367 89.5688 116.54 89.6027 117.641 89.3129C118.268 89.1481 118.757 88.7828 119.076 88.2272C119.387 87.6881 119.519 87.0035 119.519 86.215V23.3969C119.584 23.414 119.646 23.4345 119.705 23.4583C119.903 23.5375 120.085 23.6571 120.25 23.8229L120.3 23.8725L120.361 23.9065C121.226 24.3869 121.867 25.0529 122.296 25.9113C122.733 26.7862 122.956 27.7649 122.956 28.8566V86.215C122.956 88.5774 121.962 90.4031 119.933 91.7392C117.898 93.079 115.649 93.4074 113.142 92.7077C110.474 91.8546 107.778 91.2676 105.055 90.9472C102.342 90.628 99.6024 90.4684 96.8367 90.4684C91.1984 90.4684 85.6916 91.1334 80.3171 92.4637C74.9372 93.7954 69.8494 95.8464 65.0553 98.6164L65.0553 98.6163L65.0482 98.6206C64.5648 98.9106 64.0301 99.1301 63.4412 99.2773C62.8459 99.4261 62.2528 99.5 61.6611 99.5C61.0691 99.5 60.4467 99.426 59.7929 99.2751C59.1502 99.1268 58.5929 98.9069 58.1156 98.6206ZM57.2904 94.4114L58.0415 94.8475V93.979V32.0256V31.737L57.7916 31.5927C53.0073 28.8284 48.0616 26.6478 42.9549 25.052C37.8356 23.4522 32.5564 22.6525 27.1193 22.6525C23.1822 22.6525 19.5815 22.9983 16.3199 23.6934C13.0795 24.384 10.2278 25.2092 7.76809 26.1715C6.86431 26.5109 6.0899 26.9962 5.45447 27.6316C4.77677 28.3093 4.43656 29.1508 4.43656 30.1242V86.5319C4.43656 87.3204 4.56915 88.005 4.87956 88.5441C5.19944 89.0997 5.68824 89.465 6.31457 89.6298C7.43218 89.9239 8.61776 89.8294 9.85429 89.3809C12.0389 88.6532 14.517 88.0788 17.2909 87.6601C20.0588 87.2423 23.3337 87.0319 27.1193 87.0319C33.3106 87.0319 39.0739 87.7926 44.4119 89.3103C49.7764 90.8355 54.0644 92.5382 57.2904 94.4114ZM78.6027 76.0149C78.602 76.0155 78.6013 76.0161 78.6006 76.0168C78.2343 76.3367 77.8747 76.5111 77.5205 76.5718C77.1667 76.6324 76.7815 76.5861 76.3532 76.4057C75.9299 76.2275 75.6405 75.9845 75.4526 75.6879C75.2633 75.389 75.1539 74.9987 75.1539 74.4898V29.332C75.1539 29.0984 75.2124 28.8226 75.3511 28.499C75.4927 28.1687 75.646 27.9378 75.7997 27.7842L102.419 1.16481C102.79 0.793437 103.148 0.597585 103.491 0.52911C103.829 0.461349 104.202 0.508452 104.624 0.708556C105.052 0.911319 105.348 1.17427 105.541 1.48847C105.734 1.80408 105.844 2.20443 105.844 2.71264V50.5641C105.844 50.9238 105.776 51.2143 105.659 51.4496C105.522 51.7222 105.37 51.9372 105.207 52.103L78.6027 76.0149Z" fill="#F7941E" stroke="#1F1F1F"/>
</svg>

<svg xmlns="http://www.w3.org/2000/svg" width="124" height="100" fill="none"><path fill="#F7941E" stroke="#1F1F1F" d="m58.116 98.62-.008-.004q-7.186-4.152-14.94-6.151-7.748-1.997-16.049-1.997-4.468 0-8.779.56a42.7 42.7 0 0 0-8.497 2.003l-.007.003c-2.165.787-4.155.497-6.029-.884C1.931 90.768 1 88.911 1 86.532V30.124c0-1.59.445-2.991 1.332-4.223.894-1.242 2.027-2.102 3.407-2.594l.01-.004.01-.004a54.5 54.5 0 0 1 10.44-3.062 59 59 0 0 1 10.92-1.021q9.267 0 17.9 2.983a92.3 92.3 0 0 1 16.459 7.578v67.175l.77-.492q7.853-5.026 16.725-7.224 8.895-2.204 17.864-2.204 5.047 0 8.891.472 3.838.469 8.405 1.728h.001c1.233.337 2.406.37 3.507.08a2.26 2.26 0 0 0 1.435-1.085c.311-.539.443-1.224.443-2.012V23.397q.097.026.186.061.297.119.545.365l.05.05.061.034a4.6 4.6 0 0 1 1.935 2.004c.437.875.66 1.854.66 2.946v57.358c0 2.362-.994 4.188-3.023 5.524-2.035 1.34-4.284 1.668-6.791.969a43 43 0 0 0-8.087-1.76 70 70 0 0 0-8.218-.48 68.5 68.5 0 0 0-16.52 1.996 58.4 58.4 0 0 0-15.262 6.152l-.007.005q-.724.436-1.607.656a7.3 7.3 0 0 1-1.78.223 8.3 8.3 0 0 1-1.868-.225 5.8 5.8 0 0 1-1.677-.654Zm-.826-4.209.752.436v-63.11l-.25-.144q-7.177-4.147-14.837-6.541a52.8 52.8 0 0 0-15.836-2.4q-5.906 0-10.8 1.041-4.86 1.036-8.55 2.479c-.905.339-1.68.824-2.315 1.46-.677.677-1.017 1.519-1.017 2.492v56.408c0 .788.132 1.473.443 2.012.32.556.808.921 1.435 1.086 1.117.294 2.303.2 3.54-.25q3.276-1.091 7.436-1.72 4.151-.628 9.828-.628 9.287 0 17.293 2.278c5.364 1.525 9.652 3.228 12.878 5.101Zm21.313-18.396-.002.002c-.367.32-.726.494-1.08.555-.354.06-.74.014-1.168-.166-.423-.178-.712-.422-.9-.718-.19-.299-.3-.69-.3-1.198V29.332c0-.234.06-.51.198-.833.142-.33.295-.561.449-.715l26.619-26.62c.371-.37.729-.566 1.072-.635.338-.068.711-.02 1.133.18.428.202.724.465.917.78s.303.715.303 1.224v47.851c0 .36-.068.65-.185.886a2.6 2.6 0 0 1-.452.653z"/></svg>
